images/icons/dot-arrow-up.svg

<svg fill="none" height="24" viewBox="0 0 24 24" width="24" xmlns="http://www.w3.org/2000/svg" xmlns:xlink="http://www.w3.org/1999/xlink"><mask id="a" height="24" maskUnits="userSpaceOnUse" width="24" x="0" y="0"><path d="m0 0h24v24h-24z" fill="#d9d9d9"/></mask><g mask="url(#a)"><path d="m11 5.825-4.6 4.575-1.4-1.4 7-7 7 7-1.4 1.425-4.6-4.6v7.175h-2zm0 12.175v-3h2v3zm0 4v-2h2v2z" fill="#42404f"/></g></svg>

<svg width="24" height="24" viewBox="0 0 24 24" fill="none" xmlns="http://www.w3.org/2000/svg">
<mask id="mask0_272_153" style="mask-type:alpha" maskUnits="userSpaceOnUse" x="0" y="0" width="24" height="24">
<rect width="24" height="24" fill="#D9D9D9"/>
</mask>
<g mask="url(#mask0_272_153)">
<path d="M11 5.825L6.4 10.4L5 9L12 2L19 9L17.6 10.425L13 5.825V13H11V5.825ZM11 18V15H13V18H11ZM11 22V20H13V22H11Z" fill="#42404F"/>
</g>
</svg>
